src/catppuccin-mocha-teal-cursors/pirate.svg

<?xml version="1.0" encoding="UTF-8" standalone="no"?>
<svg
   id="svg5327"
   width="32"
   height="32"
   version="1.1"
   sodipodi:docname="pirate.svg"
   inkscape:version="1.1.2 (0a00cf5339, 2022-02-04)"
   xmlns:inkscape="http://www.inkscape.org/namespaces/inkscape"
   xmlns:sodipodi="http://sodipodi.sourceforge.net/DTD/sodipodi-0.dtd"
   xmlns="http://www.w3.org/2000/svg"
   xmlns:svg="http://www.w3.org/2000/svg">
  <sodipodi:namedview
     id="namedview24387"
     pagecolor="#ffffff"
     bordercolor="#666666"
     borderopacity="1.0"
     inkscape:pageshadow="2"
     inkscape:pageopacity="0.0"
     inkscape:pagecheckerboard="0"
     showgrid="false"
     inkscape:zoom="25.96875"
     inkscape:cx="16.019254"
     inkscape:cy="16.019254"
     inkscape:window-width="936"
     inkscape:window-height="1020"
     inkscape:window-x="969"
     inkscape:window-y="45"
     inkscape:window-maximized="1"
     inkscape:current-layer="svg5327" />
  <defs
     id="defs5329">
    <filter
       id="filter901"
       style="color-interpolation-filters:sRGB"
       width="1.123"
       height="1.117"
       x="-.06"
       y="-.06">
      <feGaussianBlur
         id="feGaussianBlur903"
         stdDeviation=".537" />
    </filter>
    <filter
       id="filter895"
       style="color-interpolation-filters:sRGB"
       width="1.123"
       height="1.117"
       x="-.06"
       y="-.06">
      <feGaussianBlur
         id="feGaussianBlur897"
         stdDeviation=".538" />
    </filter>
    <filter
       id="filter824"
       style="color-interpolation-filters:sRGB"
       width="1.1474286"
       height="1.1407271"
       x="-0.073714284"
       y="-0.070363556">
      <feGaussianBlur
         id="feGaussianBlur826"
         stdDeviation=".645" />
    </filter>
  </defs>
  <path
     id="path873"
     style="color:#000000;font-style:normal;font-variant:normal;font-weight:normal;font-stretch:normal;font-size:medium;line-height:normal;font-family:sans-serif;font-variant-ligatures:normal;font-variant-position:normal;font-variant-caps:normal;font-variant-numeric:normal;font-variant-alternates:normal;font-feature-settings:normal;text-indent:0;text-align:start;text-decoration:none;text-decoration-line:none;text-decoration-style:solid;text-decoration-color:#000000;letter-spacing:normal;word-spacing:normal;text-transform:none;writing-mode:lr-tb;direction:ltr;text-orientation:mixed;dominant-baseline:auto;baseline-shift:baseline;text-anchor:start;white-space:normal;shape-padding:0;clip-rule:nonzero;display:inline;overflow:visible;visibility:visible;opacity:0.2;isolation:auto;mix-blend-mode:normal;color-interpolation:sRGB;color-interpolation-filters:linearRGB;solid-color:#000000;solid-opacity:1;vector-effect:none;fill:#000000;fill-opacity:1;fill-rule:nonzero;stroke:none;stroke-width:2;stroke-linecap:round;stroke-linejoin:round;stroke-miterlimit:4;stroke-dasharray:none;stroke-dashoffset:0;stroke-opacity:1;color-rendering:auto;image-rendering:auto;shape-rendering:auto;text-rendering:auto;enable-background:accumulate;filter:url(#filter824)"
     d="M 12.492188,5.5 A 1.0001,1.0001 0 0 0 11.71875,7.125 c 0.796999,0.9946271 1.782177,2.7379151 1.78125,4.371094 -9.37e-4,1.636294 -0.981951,3.386855 -1.779297,4.376953 a 1.0001,1.0001 0 0 0 1.251953,1.507812 c 0,0 1.68388,-1.063335 3.027344,-2.664062 1.343464,1.600727 3.027344,2.664062 3.027344,2.664062 a 1.0001,1.0001 0 0 0 1.251953,-1.507812 C 19.481951,14.882949 18.500937,13.132388 18.5,11.496094 18.499073,9.8629151 19.484251,8.1196271 20.28125,7.125 A 1.0001,1.0001 0 0 0 19.027344,5.6191406 c 0,0 -1.684042,1.0654812 -3.027344,2.6660156 C 14.656698,6.6846218 12.972656,5.6191406 12.972656,5.6191406 A 1.0001,1.0001 0 0 0 12.492188,5.5 Z m 2.755859,4.894531 a 1.0001,1.0001 0 0 0 1.503906,0.002 c -0.06395,0.38043 -0.252181,0.696908 -0.251953,1.099613 2.33e-4,0.406903 0.188682,0.728722 0.253906,1.113281 a 1.0001,1.0001 0 0 0 -1.507812,0.002 c 0.06543,-0.385206 0.253673,-0.707699 0.253906,-1.115281 2.29e-4,-0.403385 -0.187797,-0.720536 -0.251953,-1.101563 z M 7.5,18.5 a 1.0001,1.0001 0 0 0 -1,1 v 7 a 1.0001,1.0001 0 0 0 1,1 h 1 a 1.0001,1.0001 0 0 0 1,-1 v -0.0078 l 0.582031,0.666015 A 1.0001,1.0001 0 0 0 10.833984,27.5 H 11.5 a 1.0001,1.0001 0 0 0 1,-1 1.0001,1.0001 0 0 0 1,1 h 1 a 1.0001,1.0001 0 0 0 1,-1 1.0001,1.0001 0 0 0 1,1 h 1 3 a 1.0001,1.0001 0 0 0 1,-1 1.0001,1.0001 0 0 0 1,1 h 1 3 a 1.0001,1.0001 0 0 0 1,-1 v -1 a 1.0001,1.0001 0 0 0 -1,-1 h -2 v -5 a 1.0001,1.0001 0 0 0 -1,-1 h -1 a 1.0001,1.0001 0 0 0 -1,1 v 6 a 1.0001,1.0001 0 0 0 -1,-1 h -2 v -5 a 1.0001,1.0001 0 0 0 -1,-1 h -1 a 1.0001,1.0001 0 0 0 -1,1 1.0001,1.0001 0 0 0 -1,-1 h -1 a 1.0001,1.0001 0 0 0 -1,1 1.0001,1.0001 0 0 0 -1,-1 h -0.689453 a 1.0001,1.0001 0 0 0 -0.726563,0.3125 L 9.4960938,19.433594 A 1.0001,1.0001 0 0 0 8.5,18.5 Z m 5,1.728516 V 20.5 A 1.0001,1.0001 0 0 0 12.634766,21 1.0001,1.0001 0 0 0 12.5,21.5 v 4.238281 a 1.0001,1.0001 0 0 0 -0.248047,-0.658203 l -1.90625,-2.177734 1.880859,-1.986328 A 1.0001,1.0001 0 0 0 12.5,20.228516 Z M 15.5,20.5 v 1 A 1.0001,1.0001 0 0 0 15.365234,21 1.0001,1.0001 0 0 0 15.5,20.5 Z" />
  <path
     id="path866"
     style="color:#000000;font-style:normal;font-variant:normal;font-weight:normal;font-stretch:normal;font-size:medium;line-height:normal;font-family:sans-serif;font-variant-ligatures:normal;font-variant-position:normal;font-variant-caps:normal;font-variant-numeric:normal;font-variant-alternates:normal;font-feature-settings:normal;text-indent:0;text-align:start;text-decoration:none;text-decoration-line:none;text-decoration-style:solid;text-decoration-color:#000000;letter-spacing:normal;word-spacing:normal;text-transform:none;writing-mode:lr-tb;direction:ltr;text-orientation:mixed;dominant-baseline:auto;baseline-shift:baseline;text-anchor:start;white-space:normal;shape-padding:0;clip-rule:nonzero;display:inline;overflow:visible;visibility:visible;opacity:1;isolation:auto;mix-blend-mode:normal;color-interpolation:sRGB;color-interpolation-filters:linearRGB;solid-color:#000000;solid-opacity:1;vector-effect:none;fill:#1E1E2E;fill-opacity:1;fill-rule:nonzero;stroke:none;stroke-width:2;stroke-linecap:round;stroke-linejoin:round;stroke-miterlimit:4;stroke-dasharray:none;stroke-dashoffset:0;stroke-opacity:1;color-rendering:auto;image-rendering:auto;shape-rendering:auto;text-rendering:auto;enable-background:accumulate"
     d="M 11.992188,5 A 1.0001,1.0001 0 0 0 11.21875,6.625 c 0.796999,0.9946271 1.782177,2.7379151 1.78125,4.371094 -9.37e-4,1.636294 -0.981951,3.386855 -1.779297,4.376953 a 1.0001,1.0001 0 0 0 1.251953,1.507812 c 0,0 1.68388,-1.063335 3.027344,-2.664062 1.343464,1.600727 3.027344,2.664062 3.027344,2.664062 a 1.0001,1.0001 0 0 0 1.251953,-1.507812 C 18.981951,14.382949 18.000937,12.632388 18,10.996094 17.999073,9.3629151 18.984251,7.6196271 19.78125,6.625 A 1.0001,1.0001 0 0 0 18.527344,5.1191406 c 0,0 -1.684042,1.0654812 -3.027344,2.6660156 C 14.156698,6.1846218 12.472656,5.1191406 12.472656,5.1191406 A 1.0001,1.0001 0 0 0 11.992188,5 Z m 2.755859,4.8945312 a 1.0001,1.0001 0 0 0 1.503906,0.00195 C 16.188001,10.276911 15.999772,10.593389 16,10.996094 c 2.33e-4,0.406903 0.188682,0.728722 0.253906,1.113281 a 1.0001,1.0001 0 0 0 -1.507812,0.002 C 14.811523,11.726169 14.999767,11.403676 15,10.996094 15.000229,10.592709 14.812203,10.275558 14.748047,9.8945312 Z M 7,18 a 1.0001,1.0001 0 0 0 -1,1 v 7 a 1.0001,1.0001 0 0 0 1,1 h 1 a 1.0001,1.0001 0 0 0 1,-1 v -0.0078 l 0.5820312,0.666015 A 1.0001,1.0001 0 0 0 10.333984,27 H 11 a 1.0001,1.0001 0 0 0 1,-1 1.0001,1.0001 0 0 0 1,1 h 1 a 1.0001,1.0001 0 0 0 1,-1 1.0001,1.0001 0 0 0 1,1 h 1 3 a 1.0001,1.0001 0 0 0 1,-1 1.0001,1.0001 0 0 0 1,1 h 1 3 a 1.0001,1.0001 0 0 0 1,-1 v -1 a 1.0001,1.0001 0 0 0 -1,-1 h -2 v -5 a 1.0001,1.0001 0 0 0 -1,-1 h -1 a 1.0001,1.0001 0 0 0 -1,1 v 6 a 1.0001,1.0001 0 0 0 -1,-1 h -2 v -5 a 1.0001,1.0001 0 0 0 -1,-1 h -1 a 1.0001,1.0001 0 0 0 -1,1 1.0001,1.0001 0 0 0 -1,-1 h -1 a 1.0001,1.0001 0 0 0 -1,1 1.0001,1.0001 0 0 0 -1,-1 H 10.310547 A 1.0001,1.0001 0 0 0 9.5839844,18.3125 L 8.9960938,18.933594 A 1.0001,1.0001 0 0 0 8,18 Z m 5,1.728516 V 20 A 1.0001,1.0001 0 0 0 12.134766,20.5 1.0001,1.0001 0 0 0 12,21 v 4.238281 A 1.0001,1.0001 0 0 0 11.751953,24.580078 L 9.8457031,22.402344 11.726562,20.416016 A 1.0001,1.0001 0 0 0 12,19.728516 Z M 15,20 v 1 A 1.0001,1.0001 0 0 0 14.865234,20.5 1.0001,1.0001 0 0 0 15,20 Z" />
  <path
     id="path825"
     style="opacity:1;fill:#94E2D5;fill-opacity:1;stroke:none;stroke-width:1.32287562;stroke-linecap:round;stroke-linejoin:round;stroke-miterlimit:4;stroke-dasharray:none;stroke-opacity:1"
     d="M 12 6 C 12.88785 7.108006 14.001137 8.9921876 14 10.996094 C 13.998852 13 12.89278 14.891398 12 16 C 12 16 14.430463 14.699375 15.5 12.765625 C 16.569537 14.699375 19 16 19 16 C 18.10722 14.891398 17.001148 13 17 10.996094 C 16.998863 8.9921876 18.11215 7.108006 19 6 C 19 6 16.569986 7.3028928 15.5 9.2363281 C 14.430014 7.3028928 12 6 12 6 z M 7 19 L 7 26 L 8 26 L 8 23.332031 L 10.333984 26 L 11 26 L 11 25.238281 L 8.4941406 22.375 L 11 19.728516 L 11 19 L 10.310547 19 L 8 21.443359 L 8 19 L 7 19 z M 13 19 L 13 20 L 14 20 L 14 19 L 13 19 z M 16 19 L 16 25 L 16 26 L 17 26 L 20 26 L 20 25 L 17 25 L 17 19 L 16 19 z M 22 19 L 22 25 L 22 26 L 23 26 L 26 26 L 26 25 L 23 25 L 23 19 L 22 19 z M 13 21 L 13 26 L 14 26 L 14 21 L 13 21 z" />
</svg>

<svg xmlns="http://www.w3.org/2000/svg" width="32" height="32">
    <defs>
        <filter id="a" width="1.147" height="1.141" x="-.074" y="-.07" style="color-interpolation-filters:sRGB">
            <feGaussianBlur stdDeviation=".645"/>
        </filter>
    </defs>
    <path d="M12.492 5.5a1 1 0 0 0-.773 1.625c.797.995 1.782 2.738 1.781 4.371 0 1.636-.982 3.387-1.78 4.377a1 1 0 0 0 1.253 1.508s1.684-1.063 3.027-2.664c1.343 1.6 3.027 2.664 3.027 2.664a1 1 0 0 0 1.252-1.508c-.797-.99-1.778-2.74-1.779-4.377 0-1.633.984-3.376 1.781-4.371a1 1 0 0 0-1.254-1.506S17.343 6.685 16 8.285c-1.343-1.6-3.027-2.666-3.027-2.666a1 1 0 0 0-.48-.119m2.756 4.895a1 1 0 0 0 1.504.002c-.064.38-.252.696-.252 1.1 0 .406.189.728.254 1.112a1 1 0 0 0-1.508.002c.066-.385.254-.707.254-1.115 0-.403-.188-.72-.252-1.101M7.5 18.5a1 1 0 0 0-1 1v7a1 1 0 0 0 1 1h1a1 1 0 0 0 1-1v-.008l.582.666a1 1 0 0 0 .752.342h.666a1 1 0 0 0 1-1 1 1 0 0 0 1 1h1a1 1 0 0 0 1-1 1 1 0 0 0 1 1h4a1 1 0 0 0 1-1 1 1 0 0 0 1 1h4a1 1 0 0 0 1-1v-1a1 1 0 0 0-1-1h-2v-5a1 1 0 0 0-1-1h-1a1 1 0 0 0-1 1v6a1 1 0 0 0-1-1h-2v-5a1 1 0 0 0-1-1h-1a1 1 0 0 0-1 1 1 1 0 0 0-1-1h-1a1 1 0 0 0-1 1 1 1 0 0 0-1-1h-.69a1 1 0 0 0-.726.313l-.588.62A1 1 0 0 0 8.5 18.5Zm5 1.729v.271a1 1 0 0 0 .135.5 1 1 0 0 0-.135.5v4.238a1 1 0 0 0-.248-.658l-1.906-2.178 1.88-1.986a1 1 0 0 0 .274-.687m3 .271v1a1 1 0 0 0-.135-.5 1 1 0 0 0 .135-.5" style="color:#000;font-style:normal;font-variant:normal;font-weight:400;font-stretch:normal;font-size:medium;line-height:normal;font-family:sans-serif;font-variant-ligatures:normal;font-variant-position:normal;font-variant-caps:normal;font-variant-numeric:normal;font-variant-alternates:normal;font-feature-settings:normal;text-indent:0;text-align:start;text-decoration:none;text-decoration-line:none;text-decoration-style:solid;text-decoration-color:#000;letter-spacing:normal;word-spacing:normal;text-transform:none;writing-mode:lr-tb;direction:ltr;text-orientation:mixed;dominant-baseline:auto;baseline-shift:baseline;text-anchor:start;white-space:normal;shape-padding:0;clip-rule:nonzero;display:inline;overflow:visible;visibility:visible;opacity:.2;isolation:auto;mix-blend-mode:normal;color-interpolation:sRGB;color-interpolation-filters:linearRGB;solid-color:#000;solid-opacity:1;vector-effect:none;fill:#000;fill-opacity:1;fill-rule:nonzero;stroke:none;stroke-width:2;stroke-linecap:round;stroke-linejoin:round;stroke-miterlimit:4;stroke-dasharray:none;stroke-dashoffset:0;stroke-opacity:1;color-rendering:auto;image-rendering:auto;shape-rendering:auto;text-rendering:auto;enable-background:accumulate;filter:url(#a)"/>
    <path d="M11.992 5a1 1 0 0 0-.773 1.625C12.016 7.62 13 9.363 13 10.996c0 1.636-.982 3.387-1.78 4.377a1 1 0 0 0 1.253 1.508s1.684-1.063 3.027-2.664c1.343 1.6 3.027 2.664 3.027 2.664a1 1 0 0 0 1.252-1.508c-.797-.99-1.778-2.74-1.779-4.377 0-1.633.984-3.376 1.781-4.371a1 1 0 0 0-1.254-1.506S16.843 6.185 15.5 7.785c-1.343-1.6-3.027-2.666-3.027-2.666a1 1 0 0 0-.48-.119m2.756 4.895a1 1 0 0 0 1.504.001c-.064.38-.252.697-.252 1.1 0 .407.189.729.254 1.113a1 1 0 0 0-1.508.002c.066-.385.254-.707.254-1.115 0-.403-.188-.72-.252-1.101M7 18a1 1 0 0 0-1 1v7a1 1 0 0 0 1 1h1a1 1 0 0 0 1-1v-.008l.582.666a1 1 0 0 0 .752.342H11a1 1 0 0 0 1-1 1 1 0 0 0 1 1h1a1 1 0 0 0 1-1 1 1 0 0 0 1 1h4a1 1 0 0 0 1-1 1 1 0 0 0 1 1h4a1 1 0 0 0 1-1v-1a1 1 0 0 0-1-1h-2v-5a1 1 0 0 0-1-1h-1a1 1 0 0 0-1 1v6a1 1 0 0 0-1-1h-2v-5a1 1 0 0 0-1-1h-1a1 1 0 0 0-1 1 1 1 0 0 0-1-1h-1a1 1 0 0 0-1 1 1 1 0 0 0-1-1h-.69a1 1 0 0 0-.726.313l-.588.62A1 1 0 0 0 8 18Zm5 1.729V20a1 1 0 0 0 .135.5A1 1 0 0 0 12 21v4.238a1 1 0 0 0-.248-.658l-1.906-2.178 1.88-1.986a1 1 0 0 0 .274-.687M15 20v1a1 1 0 0 0-.135-.5A1 1 0 0 0 15 20" style="color:#000;font-style:normal;font-variant:normal;font-weight:400;font-stretch:normal;font-size:medium;line-height:normal;font-family:sans-serif;font-variant-ligatures:normal;font-variant-position:normal;font-variant-caps:normal;font-variant-numeric:normal;font-variant-alternates:normal;font-feature-settings:normal;text-indent:0;text-align:start;text-decoration:none;text-decoration-line:none;text-decoration-style:solid;text-decoration-color:#000;letter-spacing:normal;word-spacing:normal;text-transform:none;writing-mode:lr-tb;direction:ltr;text-orientation:mixed;dominant-baseline:auto;baseline-shift:baseline;text-anchor:start;white-space:normal;shape-padding:0;clip-rule:nonzero;display:inline;overflow:visible;visibility:visible;opacity:1;isolation:auto;mix-blend-mode:normal;color-interpolation:sRGB;color-interpolation-filters:linearRGB;solid-color:#000;solid-opacity:1;vector-effect:none;fill:#1e1e2e;fill-opacity:1;fill-rule:nonzero;stroke:none;stroke-width:2;stroke-linecap:round;stroke-linejoin:round;stroke-miterlimit:4;stroke-dasharray:none;stroke-dashoffset:0;stroke-opacity:1;color-rendering:auto;image-rendering:auto;shape-rendering:auto;text-rendering:auto;enable-background:accumulate"/>
    <path d="M12 6c.888 1.108 2.001 2.992 2 4.996S12.893 14.891 12 16c0 0 2.43-1.3 3.5-3.234C16.57 14.699 19 16 19 16c-.893-1.109-1.999-3-2-5.004S18.112 7.108 19 6c0 0-2.43 1.303-3.5 3.236C14.43 7.303 12 6 12 6M7 19v7h1v-2.668L10.334 26H11v-.762l-2.506-2.863L11 19.729V19h-.69L8 21.443V19zm6 0v1h1v-1zm3 0v7h4v-1h-3v-6zm6 0v7h4v-1h-3v-6zm-9 2v5h1v-5z" style="opacity:1;fill:#94e2d5;fill-opacity:1;stroke:none;stroke-width:1.32287562;stroke-linecap:round;stroke-linejoin:round;stroke-miterlimit:4;stroke-dasharray:none;stroke-opacity:1"/>
</svg>
